X: 45
T:Drunken Landlady, The
M:4/4
L:1/8
R:reel
K:D
|BE ~E2 BAFA|BE ~E2 BAFA|ABAF DF ~F2|FA ~A2 BAFA|!
BE ~E2 BAFA|BE ~E2 BAFA|A2 Bc dfec|dBAF E3 z:|!
|Be ~e2 e2 de|f2 df e2 dB|ABAF DF ~F2|FA ~A2 BAFA|!
Be ~e2 e2 de|f2 df e2 dB|A2Bc dfec|dBAF E3 z:|
